apps/translation-pipeline/src/utils/luts/cinematic_grade.cube
# Cinematic Color Grade LUT - VideoForge Translation Pipeline
# Subtle warm shadows, cool highlights
LUT_3D_SIZE 8

0.002646 0.000298 0.000000
0.076581 0.000238 0.000000
0.227829 0.000185 0.000000
0.423707 0.000138 0.000000
0.631530 0.000098 0.000000
0.818613 0.000065 0.000000
0.952274 0.000039 0.000000
1.000000 0.000019 0.000000
0.001660 0.061333 0.000000
0.071344 0.060515 0.000000
0.219813 0.059702 0.000000
0.414384 0.058894 0.000000
0.622372 0.058090 0.000000
0.811092 0.057292 0.000000
0.947861 0.056498 0.000000
1.000000 0.055709 0.000000
0.000900 0.205404 0.000000
0.066267 0.204083 0.000000
0.211891 0.202764 0.000000
0.405088 0.201447 0.000000
0.613174 0.200134 0.000000
0.803465 0.198824 0.000000
0.944606 0.198251 0.000000
1.000000 0.198251 0.000000
0.000369 0.399044 0.000000
0.061352 0.397472 0.000000
0.204065 0.395901 0.000000
0.395823 0.394331 0.000000
0.606414 0.393586 0.000000
0.801749 0.393586 0.000000
0.944375 0.393817 0.000001
0.999988 0.395073 0.000028
0.000070 0.608785 0.000000
0.056604 0.607217 0.000000
0.198251 0.606414 0.000000
0.393586 0.606414 0.000000
0.606045 0.606599 0.000000
0.799344 0.607854 0.000026
0.941882 0.609108 0.000091
0.999914 0.610361 0.000194
0.000000 0.801749 0.000000
0.055394 0.801749 0.000000
0.198020 0.801865 0.000000
0.390800 0.802910 0.000024
0.601110 0.803953 0.000087
0.795206 0.804994 0.000190
0.939342 0.806033 0.000331
0.999773 0.807070 0.000510
0.000000 0.944653 0.000000
0.054053 0.945278 0.000023
0.193929 0.945901 0.000084
0.385882 0.946521 0.000185
0.596167 0.947137 0.000325
0.791039 0.947750 0.000503
0.936754 0.948360 0.000719
0.999565 0.948967 0.000974
0.000000 1.000000 0.000081
0.051640 1.000000 0.000181
0.189867 1.000000 0.000319
0.380974 1.000000 0.000496
0.591215 1.000000 0.000711
0.786845 1.000000 0.000964
0.934119 1.000000 0.001255
0.999292 1.000000 0.001584
0.002437 0.000274 0.042101
0.075552 0.000217 0.043500
0.226265 0.000166 0.044919
0.421894 0.000122 0.046359
0.629754 0.000085 0.047819
0.817161 0.000054 0.049300
0.951431 0.000030 0.050800
1.000000 0.000013 0.052320
0.001495 0.061021 0.044867
0.070345 0.060205 0.046306
0.218267 0.059393 0.047765
0.412576 0.058587 0.049245
0.620588 0.057785 0.050744
0.809619 0.056988 0.052264
0.946984 0.056196 0.053803
1.000000 0.055409 0.055362
0.000779 0.204900 0.047711
0.065300 0.203579 0.049190
0.210363 0.202261 0.050689
0.403286 0.200946 0.052208
0.611384 0.199634 0.053746
0.801972 0.198325 0.055304
0.944606 0.198251 0.055394
1.000000 0.198251 0.055394
0.000293 0.398445 0.050633
0.060417 0.396873 0.052151
0.202557 0.395303 0.053689
0.394027 0.393733 0.055247
0.606414 0.393586 0.055394
0.801749 0.393586 0.055394
0.943895 0.394296 0.056462
0.999979 0.395552 0.058375
0.000039 0.608187 0.053632
0.055701 0.606619 0.055189
0.198251 0.606414 0.055394
0.393586 0.606414 0.055394
0.605087 0.607077 0.056392
0.798543 0.608332 0.058304
0.941393 0.609586 0.060244
0.999891 0.610839 0.062211
0.000000 0.801749 0.055394
0.055394 0.801749 0.055394
0.197223 0.802263 0.056323
0.389844 0.803308 0.058233
0.600151 0.804350 0.060172
0.794399 0.805390 0.062138
0.938843 0.806429 0.064132
0.999738 0.807465 0.066153
0.000000 0.944892 0.056253
0.053581 0.945516 0.058163
0.193138 0.946138 0.060100
0.384928 0.946756 0.062065
0.595206 0.947371 0.064058
0.790227 0.947983 0.066078
0.936246 0.948592 0.068125
0.999517 0.949198 0.070199
0.000000 1.000000 0.060028
0.051176 1.000000 0.061993
0.189082 1.000000 0.063984
0.380022 1.000000 0.066003
0.590252 1.000000 0.068049
0.786027 1.000000 0.070122
0.933602 1.000000 0.072221
0.999232 1.000000 0.074347
0.002236 0.000252 0.176201
0.074528 0.000197 0.178718
0.224705 0.000148 0.181247
0.420083 0.000107 0.183788
0.627977 0.000072 0.186342
0.815705 0.000044 0.188908
0.950581 0.000023 0.191486
1.000000 0.000009 0.194076
0.001338 0.060709 0.181153
0.069353 0.059895 0.183694
0.216725 0.059085 0.186248
0.410770 0.058281 0.188813
0.618804 0.057481 0.191391
0.808142 0.056686 0.193981
0.946101 0.055896 0.196583
1.000000 0.055394 0.198251
0.000666 0.204396 0.186154
0.064338 0.203077 0.188719
0.208840 0.201760 0.191296
0.401486 0.200446 0.193885
0.609592 0.199135 0.196487
0.801749 0.198251 0.198251
0.944606 0.198251 0.198251
1.000000 0.198251 0.198251
0.000225 0.397846 0.191201
0.059488 0.396274 0.193790
0.201052 0.394704 0.196391
0.393586 0.393586 0.198251
0.606414 0.393586 0.198251
0.801749 0.393586 0.198251
0.943413 0.394774 0.201229
0.999967 0.396031 0.204391
0.000017 0.607589 0.196295
0.055394 0.606414 0.198251
0.198251 0.606414 0.198251
0.393586 0.606414 0.198251
0.604129 0.607556 0.201113
0.797740 0.608810 0.204274
0.940901 0.610064 0.207453
0.999867 0.611317 0.210647
0.000000 0.801749 0.198251
0.055394 0.801749 0.198251
0.196427 0.802662 0.200996
0.388888 0.803705 0.204158
0.599191 0.804747 0.207335
0.793591 0.805786 0.210529
0.938342 0.806824 0.213739
0.999700 0.807860 0.216966
0.000000 0.945130 0.200881
0.053110 0.945754 0.204041
0.192348 0.946374 0.207218
0.383974 0.946991 0.210412
0.594245 0.947605 0.213621
0.789414 0.948216 0.216847
0.935736 0.948824 0.220088
0.999467 0.949428 0.223344
0.000000 1.000000 0.207101
0.050715 1.000000 0.210294
0.188297 1.000000 0.213503
0.379070 1.000000 0.216728
0.589289 1.000000 0.219968
0.785208 1.000000 0.223224
0.933083 1.000000 0.226496
0.999168 1.000000 0.229782
0.002044 0.000230 0.367931
0.073511 0.000177 0.371035
0.223148 0.000132 0.374144
0.418272 0.000093 0.377258
0.626199 0.000061 0.380377
0.814244 0.000035 0.383500
0.949724 0.000017 0.386627
1.000000 0.000005 0.389758
0.001189 0.060398 0.374030
0.068366 0.059586 0.377144
0.215186 0.058778 0.380262
0.408965 0.057975 0.383385
0.617018 0.057177 0.386512
0.806661 0.056384 0.389643
0.945211 0.055596 0.392778
1.000000 0.055394 0.393586
0.000563 0.203893 0.380147
0.063384 0.202574 0.383270
0.207319 0.201258 0.386397
0.399686 0.199946 0.389528
0.607799 0.198636 0.392663
0.801749 0.198251 0.393586
0.944606 0.198251 0.393586
0.999999 0.198632 0.394959
0.000166 0.397246 0.386281
0.058565 0.395675 0.389412
0.199551 0.394106 0.392547
0.393586 0.393586 0.393586
0.606414 0.393586 0.393586
0.801063 0.393997 0.394821
0.942929 0.395253 0.398591
0.999953 0.396510 0.402367
0.000004 0.606991 0.392432
0.055394 0.606414 0.393586
0.198251 0.606414 0.393586
0.392856 0.606779 0.394682
0.603171 0.608034 0.398452
0.796937 0.609288 0.402228
0.940408 0.610542 0.406009
0.999840 0.611794 0.409794
0.000000 0.801749 0.393586
0.055075 0.802015 0.394543
0.195633 0.803060 0.398313
0.387933 0.804103 0.402089
0.598231 0.805143 0.405869
0.792782 0.806182 0.409655
0.937840 0.807219 0.413445
0.999660 0.808255 0.417240
0.000000 0.945368 0.398175
0.052641 0.945990 0.401950
0.191559 0.946610 0.405730
0.383021 0.947226 0.409516
0.593283 0.947838 0.413306
0.788599 0.948448 0.417100
0.935224 0.949054 0.420899
0.999414 0.949658 0.424703
0.000000 1.000000 0.405591
0.050256 1.000000 0.409376
0.187514 1.000000 0.413166
0.378119 1.000000 0.416961
0.588326 1.000000 0.420760
0.784389 1.000000 0.424563
0.932563 1.000000 0.428370
0.999103 1.000000 0.432181
0.001861 0.000209 0.581701
0.072499 0.000159 0.584865
0.221594 0.000116 0.588026
0.416462 0.000080 0.591183
0.624419 0.000050 0.594337
0.812780 0.000028 0.597488
0.948861 0.000012 0.600635
1.000000 0.000002 0.603778
0.001050 0.060088 0.587910
0.067386 0.059277 0.591067
0.213651 0.058471 0.594221
0.407160 0.057670 0.597372
0.615230 0.056874 0.600519
0.805176 0.056083 0.603663
0.944606 0.055394 0.606414
1.000000 0.055394 0.606414
0.000467 0.203390 0.594105
0.062435 0.202072 0.597256
0.205803 0.200758 0.600403
0.397888 0.199446 0.603547
0.606414 0.198251 0.606414
0.801749 0.198251 0.606414
0.944606 0.198251 0.606414
0.999995 0.199031 0.609221
0.000117 0.396647 0.600288
0.057649 0.395077 0.603431
0.198251 0.393586 0.606414
0.393586 0.393586 0.606414
0.606414 0.393586 0.606414
0.800264 0.394476 0.609083
0.942443 0.395732 0.612842
0.999936 0.396989 0.616594
0.000000 0.606414 0.606414
0.055394 0.606414 0.606414
0.198251 0.606414 0.606414
0.391899 0.607258 0.608944
0.602212 0.608512 0.612703
0.796132 0.609766 0.616456
0.939913 0.611019 0.620203
0.999810 0.612272 0.623944
0.000000 0.801749 0.606414
0.054598 0.802414 0.608806
0.194839 0.803458 0.612565
0.386978 0.804500 0.616318
0.597271 0.805540 0.620066
0.791972 0.806578 0.623806
0.937335 0.807614 0.627541
0.999617 0.808649 0.631268
0.000000 0.945606 0.612427
0.052174 0.946227 0.616181
0.190771 0.946845 0.619928
0.382068 0.947460 0.623669
0.592321 0.948071 0.627403
0.787783 0.948680 0.631131
0.934711 0.949285 0.634852
0.999359 0.949887 0.638566
0.000000 1.000000 0.619790
0.049798 1.000000 0.623531
0.186732 1.000000 0.627266
0.377169 1.000000 0.630994
0.587362 1.000000 0.634715
0.783568 1.000000 0.638429
0.932040 1.000000 0.642136
0.999035 1.000000 0.645835
0.001685 0.000189 0.781927
0.071493 0.000142 0.784621
0.220044 0.000102 0.787304
0.414654 0.000068 0.789976
0.622637 0.000041 0.792636
0.811311 0.000021 0.795286
0.947992 0.000007 0.797923
1.000000 0.000001 0.800550
0.000919 0.059778 0.787205
0.066412 0.058969 0.789877
0.212119 0.058165 0.792539
0.405357 0.057366 0.795188
0.613441 0.056572 0.797827
0.803688 0.055783 0.800453
0.944606 0.055394 0.801749
1.000000 0.055394 0.801749
0.000381 0.202887 0.792441
0.061492 0.201571 0.795091
0.204290 0.200257 0.797730
0.396090 0.198946 0.800357
0.606414 0.198251 0.801749
0.801749 0.198251 0.801749
0.944447 0.198384 0.802148
0.999989 0.199431 0.805276
0.000075 0.396048 0.797633
0.056739 0.394478 0.800260
0.198251 0.393586 0.801749
0.393586 0.393586 0.801749
0.606187 0.393699 0.802033
0.799464 0.394955 0.805161
0.941955 0.396211 0.808272
0.999917 0.397468 0.811366
0.000000 0.606414 0.801749
0.055394 0.606414 0.801749
0.198139 0.606481 0.801917
0.390943 0.607736 0.805046
0.601253 0.608990 0.808158
0.795326 0.610244 0.811252
0.939416 0.611497 0.814329
0.999778 0.612749 0.817388
0.000000 0.801767 0.801802
0.054124 0.802812 0.804931
0.194047 0.803855 0.808044
0.386024 0.804896 0.811139
0.596310 0.805936 0.814216
0.791160 0.806973 0.817276
0.936829 0.808009 0.820318
0.999572 0.809043 0.823342
0.000000 0.945843 0.807929
0.051709 0.946463 0.811025
0.189984 0.947080 0.814103
0.381116 0.947693 0.817164
0.591358 0.948303 0.820206
0.786967 0.948911 0.823231
0.934196 0.949515 0.826237
0.999301 0.950116 0.829225
0.000000 1.000000 0.813990
0.049343 1.000000 0.817051
0.185952 1.000000 0.820095
0.376219 1.000000 0.823120
0.586398 1.000000 0.826127
0.782746 1.000000 0.829115
0.931516 1.000000 0.832085
0.998964 1.000000 0.835036
0.001519 0.000170 0.933019
0.070494 0.000126 0.934715
0.218498 0.000088 0.936391
0.412846 0.000057 0.938048
0.620854 0.000032 0.939686
0.809839 0.000015 0.941306
0.947116 0.000004 0.942905
1.000000 0.000000 0.944486
0.000796 0.059469 0.936330
0.065443 0.058662 0.937988
0.210591 0.057860 0.939627
0.403555 0.057063 0.941246
0.611651 0.056270 0.942847
0.802195 0.055483 0.944428
0.944606 0.055394 0.944606
1.000000 0.055394 0.944606
0.000304 0.202385 0.939567
0.060556 0.201069 0.941187
0.202781 0.199757 0.942788
0.394295 0.198448 0.944370
0.606414 0.198251 0.944606
0.801749 0.198251 0.944606
0.943967 0.198783 0.945560
0.999980 0.199831 0.947414
0.000043 0.395450 0.942730
0.055835 0.393880 0.944312
0.198251 0.393586 0.944606
0.393586 0.393586 0.944606
0.605230 0.394178 0.945491
0.798662 0.395434 0.947347
0.941466 0.396690 0.949174
0.999895 0.397948 0.950972
0.000000 0.606414 0.944606
0.055394 0.606414 0.944606
0.197342 0.606960 0.945422
0.389987 0.608214 0.947279
0.600294 0.609468 0.949107
0.794519 0.610722 0.950906
0.938917 0.611975 0.952677
0.999743 0.613227 0.954419
0.000000 0.802165 0.945354
0.053651 0.803210 0.947211
0.193256 0.804252 0.949040
0.385070 0.805293 0.950841
0.595349 0.806332 0.952612
0.790348 0.807368 0.954355
0.936322 0.808403 0.956068
0.999525 0.809436 0.957752
0.000000 0.946080 0.948973
0.051245 0.946698 0.950775
0.189199 0.947314 0.952548
0.380164 0.947926 0.954291
0.590396 0.948535 0.956006
0.786149 0.949141 0.957691
0.933679 0.949744 0.959346
0.999241 0.950344 0.960972
0.000000 1.000000 0.952483
0.048889 1.000000 0.954228
0.185172 1.000000 0.955943
0.375269 1.000000 0.957629
0.585434 1.000000 0.959286
0.781923 1.000000 0.960912
0.930991 1.000000 0.962509
0.998891 1.000000 0.964075
0.001361 0.000153 0.999392
0.069500 0.000111 0.999560
0.216955 0.000075 0.999700
0.411039 0.000047 0.999814
0.619070 0.000025 0.999901
0.808363 0.000010 0.999961
0.946233 0.000002 0.999993
1.000000 0.000000 1.000000
0.000683 0.059161 0.999696
0.064481 0.058356 0.999810
0.209067 0.057556 0.999898
0.401754 0.056760 0.999959
0.609859 0.055970 0.999993
0.801749 0.055394 1.000000
0.944606 0.055394 1.000000
1.000000 0.055394 1.000000
0.000235 0.201883 0.999895
0.059626 0.200569 0.999957
0.201276 0.199257 0.999992
0.393586 0.198251 1.000000
0.606414 0.198251 1.000000
0.801749 0.198251 1.000000
0.943485 0.199182 1.000000
0.999969 0.200231 1.000000
0.000020 0.394851 0.999991
0.055394 0.393586 1.000000
0.198251 0.393586 1.000000
0.393586 0.393586 1.000000
0.604272 0.394657 1.000000
0.797860 0.395913 1.000000
0.940975 0.397170 1.000000
0.999871 0.398427 1.000000
0.000000 0.606414 1.000000
0.055394 0.606414 1.000000
0.196546 0.607438 1.000000
0.389031 0.608693 1.000000
0.599334 0.609946 1.000000
0.793711 0.611200 1.000000
0.938417 0.612452 1.000000
0.999706 0.613704 1.000000
0.000000 0.802564 1.000000
0.053180 0.803608 1.000000
0.192465 0.804649 1.000000
0.384116 0.805689 1.000000
0.594388 0.806727 1.000000
0.789535 0.807763 1.000000
0.935812 0.808797 1.000000
0.999475 0.809830 1.000000
0.000000 0.946316 1.000000
0.050784 0.946933 1.000000
0.188414 0.947548 1.000000
0.379212 0.948159 1.000000
0.589433 0.948767 1.000000
0.785331 0.949372 1.000000
0.933161 0.949973 1.000000
0.999178 0.950572 1.000000
0.000000 1.000000 1.000000
0.048437 1.000000 1.000000
0.184393 1.000000 1.000000
0.374319 1.000000 1.000000
0.584470 1.000000 1.000000
0.781099 1.000000 1.000000
0.930463 1.000000 1.000000
0.998816 1.000000 1.000000