apps/translation-pipeline/src/utils/luts/gradient.cube
# VideoForge Cinematic Grade
TITLE "VideoForge Cinematic"
LUT_3D_SIZE 8

0.020000 0.005000 0.000000
0.148029 0.004573 0.000000
0.289178 0.004146 0.000000
0.438198 0.003719 0.000000
0.589842 0.003291 0.000000
0.738862 0.002864 0.000000
0.880011 0.002437 0.000000
1.000000 0.002010 0.000000
0.016646 0.133899 0.000000
0.144675 0.133472 0.000000
0.285823 0.133045 0.000000
0.434844 0.132618 0.000000
0.586488 0.132190 0.000000
0.735508 0.131763 0.000000
0.876657 0.131336 0.000000
1.000000 0.130909 0.000000
0.013291 0.275918 0.000000
0.141320 0.275490 0.000000
0.282469 0.275063 0.000000
0.431489 0.274636 0.000000
0.583134 0.274209 0.000000
0.732154 0.273782 0.000000
0.873302 0.273355 0.000000
1.000000 0.272928 0.000000
0.009937 0.425808 0.000000
0.137966 0.425381 0.000000
0.279115 0.424954 0.000000
0.428135 0.424526 0.000000
0.579779 0.424099 0.000000
0.728800 0.423672 0.000000
0.870105 0.423402 0.000157
0.998989 0.423829 0.001011
0.006583 0.578322 0.000000
0.134612 0.577895 0.000000
0.275760 0.577468 0.000000
0.424781 0.577041 0.000000
0.576551 0.576739 0.000126
0.726425 0.577166 0.000980
0.868428 0.577594 0.001834
0.997311 0.578021 0.002689
0.003229 0.728212 0.000000
0.131258 0.727785 0.000000
0.272500 0.727452 0.000094
0.422375 0.727880 0.000949
0.574874 0.728307 0.001803
0.724748 0.728734 0.002657
0.866751 0.729161 0.003511
0.995634 0.729588 0.004366
0.000000 0.870294 0.000063
0.128820 0.870721 0.000917
0.270823 0.871148 0.001771
0.420698 0.871575 0.002626
0.573196 0.872002 0.003480
0.723071 0.872430 0.004334
0.865074 0.872857 0.005189
0.993957 0.873284 0.006043
0.000000 1.000000 0.001740
0.127143 1.000000 0.002594
0.269146 1.000000 0.003449
0.419021 1.000000 0.004303
0.571519 1.000000 0.005157
0.721394 1.000000 0.006011
0.863397 1.000000 0.006866
0.992280 1.000000 0.007720
0.019349 0.004837 0.115226
0.147378 0.004410 0.116508
0.288526 0.003983 0.117789
0.437546 0.003556 0.119070
0.589191 0.003129 0.120352
0.738211 0.002701 0.121633
0.879360 0.002274 0.122915
1.000000 0.001847 0.124196
0.015994 0.133736 0.117742
0.144023 0.133309 0.119023
0.285172 0.132882 0.120305
0.434192 0.132455 0.121586
0.585836 0.132028 0.122868
0.734857 0.131600 0.124149
0.876005 0.131173 0.125430
1.000000 0.130746 0.126712
0.012640 0.275755 0.120258
0.140669 0.275328 0.121539
0.281818 0.274900 0.122820
0.430838 0.274473 0.124102
0.582482 0.274046 0.125383
0.731502 0.273619 0.126665
0.872651 0.273192 0.127946
1.000000 0.272765 0.129228
0.009286 0.425645 0.122773
0.137315 0.425218 0.124055
0.278463 0.424791 0.125336
0.427484 0.424364 0.126618
0.579128 0.423936 0.127899
0.728148 0.423509 0.129180
0.869780 0.423565 0.130220
0.998663 0.423992 0.131075
0.005931 0.578159 0.125289
0.133960 0.577732 0.126570
0.275109 0.577305 0.127852
0.424129 0.576878 0.129133
0.576225 0.576902 0.130189
0.726100 0.577329 0.131043
0.868102 0.577756 0.131898
0.996986 0.578184 0.132752
0.002577 0.728050 0.127805
0.130606 0.727622 0.129086
0.272175 0.727615 0.130158
0.422049 0.728042 0.131012
0.574548 0.728470 0.131866
0.724422 0.728897 0.132720
0.866425 0.729324 0.133575
0.995309 0.729751 0.134429
0.000000 0.870457 0.130126
0.128495 0.870884 0.130980
0.270498 0.871311 0.131835
0.420372 0.871738 0.132689
0.572871 0.872165 0.133543
0.722745 0.872592 0.134398
0.864748 0.873020 0.135252
0.993631 0.873447 0.136106
0.000000 1.000000 0.131803
0.126818 1.000000 0.132658
0.268820 1.000000 0.133512
0.418695 1.000000 0.134366
0.571194 1.000000 0.135220
0.721068 1.000000 0.136075
0.863071 1.000000 0.136929
0.991954 1.000000 0.137783
0.018697 0.004674 0.258572
0.146726 0.004247 0.259853
0.287875 0.003820 0.261135
0.436895 0.003393 0.262416
0.588539 0.002966 0.263698
0.737560 0.002539 0.264979
0.878708 0.002111 0.266260
1.000000 0.001684 0.267542
0.015343 0.133573 0.261088
0.143372 0.133146 0.262369
0.284520 0.132719 0.263650
0.433541 0.132292 0.264932
0.585185 0.131865 0.266213
0.734205 0.131438 0.267495
0.875354 0.131010 0.268776
1.000000 0.130583 0.270058
0.011989 0.275592 0.263603
0.140018 0.275165 0.264885
0.281166 0.274738 0.266166
0.430186 0.274310 0.267448
0.581831 0.273883 0.268729
0.730851 0.273456 0.270010
0.872000 0.273029 0.271292
1.000000 0.272602 0.272573
0.008634 0.425482 0.266119
0.136663 0.425055 0.267400
0.277812 0.424628 0.268682
0.426832 0.424201 0.269963
0.578476 0.423774 0.271245
0.727497 0.423346 0.272526
0.869454 0.423728 0.273403
0.998337 0.424155 0.274258
0.005280 0.577996 0.268635
0.133309 0.577569 0.269916
0.274458 0.577142 0.271198
0.423478 0.576715 0.272479
0.575899 0.577065 0.273372
0.725774 0.577492 0.274226
0.867777 0.577919 0.275080
0.996660 0.578346 0.275935
0.001926 0.727887 0.271150
0.129955 0.727460 0.272432
0.271849 0.727778 0.273340
0.421724 0.728205 0.274195
0.574222 0.728632 0.275049
0.724097 0.729060 0.275903
0.866100 0.729487 0.276758
0.994983 0.729914 0.277612
0.000000 0.870620 0.273309
0.128169 0.871047 0.274163
0.270172 0.871474 0.275018
0.420046 0.871901 0.275872
0.572545 0.872328 0.276726
0.722420 0.872755 0.277580
0.864422 0.873182 0.278435
0.993306 0.873610 0.279289
0.000000 1.000000 0.274986
0.126492 1.000000 0.275840
0.268495 1.000000 0.276695
0.418369 1.000000 0.277549
0.570868 1.000000 0.278403
0.720742 1.000000 0.279258
0.862745 1.000000 0.280112
0.991629 1.000000 0.280966
0.018046 0.004511 0.409789
0.146075 0.004084 0.411071
0.287223 0.003657 0.412352
0.436244 0.003230 0.413634
0.587888 0.002803 0.414915
0.736908 0.002376 0.416196
0.878057 0.001949 0.417478
1.000000 0.001521 0.418759
0.014691 0.133410 0.412305
0.142720 0.132983 0.413586
0.283869 0.132556 0.414868
0.432889 0.132129 0.416149
0.584534 0.131702 0.417431
0.733554 0.131275 0.418712
0.874702 0.130848 0.419994
1.000000 0.130420 0.421275
0.011337 0.275429 0.414821
0.139366 0.275002 0.416102
0.280515 0.274575 0.417384
0.429535 0.274148 0.418665
0.581179 0.273720 0.419946
0.730200 0.273293 0.421228
0.871348 0.272866 0.422509
0.999689 0.272750 0.423635
0.007983 0.425319 0.417336
0.136012 0.424892 0.418618
0.277160 0.424465 0.419899
0.426181 0.424038 0.421181
0.577825 0.423611 0.422462
0.727125 0.423464 0.423604
0.869128 0.423891 0.424458
0.998011 0.424318 0.425312
0.004629 0.577834 0.419852
0.132658 0.577406 0.421134
0.273806 0.576979 0.422415
0.423075 0.576801 0.423572
0.575574 0.577228 0.424426
0.725448 0.577655 0.425281
0.867451 0.578082 0.426135
0.996334 0.578509 0.426989
0.001274 0.727724 0.422368
0.129520 0.727514 0.423541
0.271523 0.727941 0.424395
0.421398 0.728368 0.425249
0.573896 0.728795 0.426104
0.723771 0.729222 0.426958
0.865774 0.729650 0.427812
0.994657 0.730077 0.428666
0.000000 0.870782 0.424364
0.127843 0.871210 0.425218
0.269846 0.871637 0.426072
0.419721 0.872064 0.426926
0.572219 0.872491 0.427781
0.722094 0.872918 0.428635
0.864097 0.873345 0.429489
0.992980 0.873772 0.430344
0.000000 1.000000 0.426041
0.126166 1.000000 0.426895
0.268169 1.000000 0.427749
0.418044 1.000000 0.428604
0.570542 1.000000 0.429458
0.720417 1.000000 0.430312
0.862420 1.000000 0.431166
0.991303 1.000000 0.432021
0.017394 0.004349 0.563631
0.145423 0.003921 0.564912
0.286572 0.003494 0.566194
0.435592 0.003067 0.567475
0.587236 0.002640 0.568756
0.736257 0.002213 0.570038
0.877405 0.001786 0.571319
1.000000 0.001359 0.572601
0.014040 0.133248 0.566146
0.142069 0.132820 0.567428
0.283218 0.132393 0.568709
0.432238 0.131966 0.569991
0.583882 0.131539 0.571272
0.732902 0.131112 0.572554
0.874051 0.130685 0.573835
1.000000 0.130258 0.575116
0.010686 0.275266 0.568662
0.138715 0.274839 0.569944
0.279863 0.274412 0.571225
0.428884 0.273985 0.572506
0.580528 0.273558 0.573788
0.729548 0.273130 0.575069
0.870697 0.272703 0.576351
0.999363 0.272913 0.577314
0.007331 0.425156 0.571178
0.135360 0.424729 0.572459
0.276509 0.424302 0.573741
0.425529 0.423875 0.575022
0.577174 0.423448 0.576304
0.726800 0.423626 0.577282
0.868802 0.424054 0.578136
0.997686 0.424481 0.578991
0.003977 0.577671 0.573694
0.132006 0.577244 0.574975
0.273155 0.576816 0.576256
0.422749 0.576964 0.577251
0.575248 0.577391 0.578105
0.725122 0.577818 0.578959
0.867125 0.578245 0.579814
0.996009 0.578672 0.580668
0.000623 0.727561 0.576209
0.129195 0.727677 0.577219
0.271198 0.728104 0.578074
0.421072 0.728531 0.578928
0.573571 0.728958 0.579782
0.723445 0.729385 0.580636
0.865448 0.729812 0.581491
0.994331 0.730240 0.582345
0.000000 0.870945 0.578042
0.127518 0.871372 0.578896
0.269520 0.871800 0.579751
0.419395 0.872227 0.580605
0.571894 0.872654 0.581459
0.721768 0.873081 0.582314
0.863771 0.873508 0.583168
0.992654 0.873935 0.584022
0.000000 1.000000 0.579719
0.125840 1.000000 0.580574
0.267843 1.000000 0.581428
0.417718 1.000000 0.582282
0.570216 1.000000 0.583136
0.720091 1.000000 0.583991
0.862094 1.000000 0.584845
0.990977 1.000000 0.585699
0.016743 0.004186 0.714848
0.144772 0.003759 0.716130
0.285920 0.003331 0.717411
0.434941 0.002904 0.718692
0.586585 0.002477 0.719974
0.735605 0.002050 0.721255
0.876754 0.001623 0.722537
1.000000 0.001196 0.723818
0.013389 0.133085 0.717364
0.141418 0.132658 0.718645
0.282566 0.132230 0.719927
0.431586 0.131803 0.721208
0.583231 0.131376 0.722490
0.732251 0.130949 0.723771
0.873400 0.130522 0.725052
1.000000 0.130095 0.726334
0.010034 0.275103 0.719880
0.138063 0.274676 0.721161
0.279212 0.274249 0.722442
0.428232 0.273822 0.723724
0.579876 0.273395 0.725005
0.728897 0.272968 0.726287
0.870154 0.272649 0.727514
0.999037 0.273076 0.728368
0.006680 0.424994 0.722395
0.134709 0.424566 0.723677
0.275858 0.424139 0.724958
0.424878 0.423712 0.726240
0.576599 0.423362 0.727482
0.726474 0.423789 0.728337
0.868477 0.424216 0.729191
0.997360 0.424644 0.730045
0.003326 0.577508 0.724911
0.131355 0.577081 0.726192
0.272549 0.576699 0.727451
0.422424 0.577126 0.728305
0.574922 0.577554 0.729160
0.724797 0.577981 0.730014
0.866800 0.578408 0.730868
0.995683 0.578835 0.731722
0.000000 0.727412 0.727420
0.128869 0.727840 0.728274
0.270872 0.728267 0.729128
0.420746 0.728694 0.729982
0.573245 0.729121 0.730837
0.723120 0.729548 0.731691
0.865122 0.729975 0.732545
0.994006 0.730402 0.733400
0.000000 0.871108 0.729097
0.127192 0.871535 0.729951
0.269195 0.871962 0.730805
0.419069 0.872390 0.731660
0.571568 0.872817 0.732514
0.721442 0.873244 0.733368
0.863445 0.873671 0.734222
0.992329 0.874098 0.735077
0.000000 1.000000 0.730774
0.125515 1.000000 0.731628
0.267518 1.000000 0.732482
0.417392 1.000000 0.733337
0.569891 1.000000 0.734191
0.719765 1.000000 0.735045
0.861768 1.000000 0.735900
0.990651 1.000000 0.736754
0.016091 0.004023 0.858194
0.144120 0.003596 0.859475
0.285269 0.003169 0.860757
0.434289 0.002741 0.862038
0.585934 0.002314 0.863320
0.734954 0.001887 0.864601
0.876102 0.001460 0.865882
1.000000 0.001033 0.867164
0.012737 0.132922 0.860710
0.140766 0.132495 0.861991
0.281915 0.132068 0.863272
0.430935 0.131640 0.864554
0.582579 0.131213 0.865835
0.731600 0.130786 0.867117
0.872748 0.130359 0.868398
1.000000 0.129932 0.869680
0.009383 0.274940 0.863225
0.137412 0.274513 0.864507
0.278560 0.274086 0.865788
0.427581 0.273659 0.867070
0.579225 0.273232 0.868351
0.728245 0.272805 0.869632
0.869828 0.272812 0.870697
0.998711 0.273239 0.871551
0.006029 0.424831 0.865741
0.134058 0.424404 0.867022
0.275206 0.423976 0.868304
0.424226 0.423549 0.869585
0.576274 0.423525 0.870665
0.726148 0.423952 0.871520
0.868151 0.424379 0.872374
0.997034 0.424806 0.873228
0.002674 0.577345 0.868257
0.130703 0.576918 0.869538
0.272223 0.576862 0.870634
0.422098 0.577289 0.871488
0.574596 0.577716 0.872342
0.724471 0.578144 0.873197
0.866474 0.578571 0.874051
0.995357 0.578998 0.874905
0.000000 0.727575 0.870602
0.128543 0.728002 0.871457
0.270546 0.728430 0.872311
0.420421 0.728857 0.873165
0.572919 0.729284 0.874020
0.722794 0.729711 0.874874
0.864797 0.730138 0.875728
0.993680 0.730565 0.876582
0.000000 0.871271 0.872280
0.126866 0.871698 0.873134
0.268869 0.872125 0.873988
0.418744 0.872552 0.874842
0.571242 0.872980 0.875697
0.721117 0.873407 0.876551
0.863120 0.873834 0.877405
0.992003 0.874261 0.878260
0.000000 1.000000 0.873957
0.125189 1.000000 0.874811
0.267192 1.000000 0.875665
0.417066 1.000000 0.876520
0.569565 1.000000 0.877374
0.719440 1.000000 0.878228
0.861442 1.000000 0.879082
0.990326 1.000000 0.879937
0.015440 0.003860 0.988420
0.143469 0.003433 0.989701
0.284618 0.003006 0.990983
0.433638 0.002579 0.992264
0.585282 0.002151 0.993546
0.734302 0.001724 0.994827
0.875451 0.001297 0.996109
1.000000 0.000870 0.997390
0.012086 0.132759 0.990936
0.140115 0.132332 0.992217
0.281263 0.131905 0.993499
0.430284 0.131478 0.994780
0.581928 0.131050 0.996061
0.730948 0.130623 0.997343
0.872097 0.130196 0.998624
1.000000 0.129769 0.999906
0.008731 0.274778 0.993451
0.136760 0.274350 0.994733
0.277909 0.273923 0.996014
0.426929 0.273496 0.997296
0.578574 0.273069 0.998577
0.727594 0.272642 0.999859
0.869502 0.272975 1.000000
0.998386 0.273402 1.000000
0.005377 0.424668 0.995967
0.133406 0.424241 0.997249
0.274555 0.423814 0.998530
0.423575 0.423386 0.999811
0.575948 0.423688 1.000000
0.725822 0.424115 1.000000
0.867825 0.424542 1.000000
0.996709 0.424969 1.000000
0.002023 0.577182 0.998483
0.130052 0.576755 0.999764
0.271898 0.577025 1.000000
0.421772 0.577452 1.000000
0.574271 0.577879 1.000000
0.724145 0.578306 1.000000
0.866148 0.578734 1.000000
0.995031 0.579161 1.000000
0.000000 0.727738 1.000000
0.128218 0.728165 1.000000
0.270220 0.728592 1.000000
0.420095 0.729020 1.000000
0.572594 0.729447 1.000000
0.722468 0.729874 1.000000
0.864471 0.730301 1.000000
0.993354 0.730728 1.000000
0.000000 0.871434 1.000000
0.126540 0.871861 1.000000
0.268543 0.872288 1.000000
0.418418 0.872715 1.000000
0.570916 0.873142 1.000000
0.720791 0.873570 1.000000
0.862794 0.873997 1.000000
0.991677 0.874424 1.000000
0.000000 1.000000 1.000000
0.124863 1.000000 1.000000
0.266866 1.000000 1.000000
0.416741 1.000000 1.000000
0.569239 1.000000 1.000000
0.719114 1.000000 1.000000
0.861117 1.000000 1.000000
0.990000 1.000000 1.000000
